extras/source/gallery/arrows/A63-Arrow-LightBlue-Left.svg

<svg enable-background="new 0 0 61.51 60.343" height="60.343" viewBox="0 0 61.51 60.343" width="61.51" xmlns="http://www.w3.org/2000/svg" xmlns:xlink="http://www.w3.org/1999/xlink"><linearGradient id="a" gradientUnits="userSpaceOnUse" x1="4.8784" x2="57.2505" y1="30.4531" y2="30.4531"><stop offset="0" stop-color="#a1c1ea"/><stop offset="1" stop-color="#6295d6"/></linearGradient><path d="m3.1 30.458 30.341 26.433s0-12.671 0-13.628h15.816c5.052 0 9.162-4.111 9.162-9.164v-7.295c0-5.05-4.11-9.159-9.162-9.159 0 0-14.843 0-15.816 0 0-.958 0-13.628 0-13.628z" fill="#355787"/><path d="m33.959 2.875-1.721 1.5-29.03 25.299-.899.783.899.783 29.031 25.292 1.721 1.499v-2.281-11.968h15.298c5.338 0 9.682-4.344 9.682-9.683v-7.296c0-5.336-4.344-9.678-9.682-9.678h-15.299v-11.966zm-30.069 27.583 29.031-25.299v11.967 1.039h1.038 15.298c4.77 0 8.643 3.869 8.643 8.639v7.296c0 4.777-3.873 8.644-8.643 8.644h-16.336v1.039 11.967z" fill="#355787"/><path d="m4.878 30.458c1.04.906 25.439 22.163 27.394 23.865 0-2.261 0-12.229 0-12.229h16.985c4.407 0 7.993-3.587 7.993-7.995v-7.295c0-4.406-3.586-7.991-7.993-7.991h-16.985s0-9.966 0-12.228c-1.954 1.703-26.355 22.967-27.394 23.873z" fill="url(#a)"/><path d="m32.921 5.159-29.031 25.299.979.853.01.008 26.744 23.301.319.277.979.854v-13.008h16.336c4.77 0 8.643-3.866 8.643-8.644v-7.296c0-4.77-3.873-8.639-8.643-8.639h-16.336zm-27.054 25.299 25.756-22.446v10.152 1.298h1.299 16.336c4.05 0 7.345 3.293 7.345 7.341v7.297c0 4.05-3.295 7.346-7.345 7.346h-16.337-1.299v1.298 10.153z" fill="#d2eff9"/></svg>

<?xml version="1.0" encoding="UTF-8" standalone="no"?>
<!-- Generator: Adobe Illustrator 12.0.1, SVG Export Plug-In . SVG Version: 6.00 Build 51448)  -->

<svg
   xmlns:dc="http://purl.org/dc/elements/1.1/"
   xmlns:cc="http://creativecommons.org/ns#"
   xmlns:rdf="http://www.w3.org/1999/02/22-rdf-syntax-ns#"
   xmlns:svg="http://www.w3.org/2000/svg"
   xmlns="http://www.w3.org/2000/svg"
   xmlns:sodipodi="http://sodipodi.sourceforge.net/DTD/sodipodi-0.dtd"
   xmlns:inkscape="http://www.inkscape.org/namespaces/inkscape"
   version="1.1"
   id="Layer_1"
   width="61.51"
   height="60.343"
   viewBox="0 0 61.51 60.343"
   overflow="visible"
   enable-background="new 0 0 61.51 60.343"
   xml:space="preserve"
   inkscape:version="0.48.2 r9819"
   sodipodi:docname="Arrow03-LightBlue-Left.svg"><metadata
   id="metadata28"><rdf:RDF><cc:Work
       rdf:about=""><dc:format>image/svg+xml</dc:format><dc:type
         rdf:resource="http://purl.org/dc/dcmitype/StillImage" /></cc:Work></rdf:RDF></metadata><defs
   id="defs26" /><sodipodi:namedview
   pagecolor="#ffffff"
   bordercolor="#666666"
   borderopacity="1"
   objecttolerance="10"
   gridtolerance="10"
   guidetolerance="10"
   inkscape:pageopacity="0"
   inkscape:pageshadow="2"
   inkscape:window-width="1126"
   inkscape:window-height="872"
   id="namedview24"
   showgrid="false"
   inkscape:zoom="3.9109757"
   inkscape:cx="30.754999"
   inkscape:cy="30.171499"
   inkscape:window-x="2244"
   inkscape:window-y="184"
   inkscape:window-maximized="0"
   inkscape:current-layer="Layer_1" />

<g
   id="g5">
	<g
   id="g7">
		<path
   fill="#355787"
   d="M3.1,30.458l30.341,26.433c0,0,0-12.671,0-13.628c0.974,0,15.816,0,15.816,0    c5.052,0,9.162-4.111,9.162-9.164v-7.295c0-5.05-4.11-9.159-9.162-9.159c0,0-14.843,0-15.816,0c0-0.958,0-13.628,0-13.628    L3.1,30.458z"
   id="path9" />
		<path
   fill="#355787"
   d="M33.959,2.875l-1.721,1.5L3.208,29.674l-0.899,0.783l0.899,0.783l29.031,25.292l1.721,1.499V55.75V43.782    h15.298c5.338,0,9.682-4.344,9.682-9.683v-7.296c0-5.336-4.344-9.678-9.682-9.678H33.959V5.159V2.875L33.959,2.875z M3.89,30.458    L32.921,5.159v11.967l0,0l0,0v1.039h1.038l0,0l0,0h15.298c4.77,0,8.643,3.869,8.643,8.639V34.1l0,0l0,0    c0,4.777-3.873,8.644-8.643,8.644H32.921v1.039l0,0l0,0V55.75l0,0l0,0L3.89,30.458L3.89,30.458L3.89,30.458z"
   id="path11" />
	</g>
	<g
   id="g13">
		<linearGradient
   id="XMLID_2_"
   gradientUnits="userSpaceOnUse"
   x1="4.8784"
   y1="30.4531"
   x2="57.2505"
   y2="30.4531">
			<stop
   offset="0"
   style="stop-color:#A1C1EA"
   id="stop16" />
			<stop
   offset="1"
   style="stop-color:#6295D6"
   id="stop18" />
		</linearGradient>
		<path
   fill="url(#XMLID_2_)"
   d="M4.878,30.458c1.04,0.906,25.439,22.163,27.394,23.865c0-2.261,0-12.229,0-12.229h16.985    c4.407,0,7.993-3.587,7.993-7.995v-7.295c0-4.406-3.586-7.991-7.993-7.991H32.272c0,0,0-9.966,0-12.228    C30.318,8.288,5.917,29.552,4.878,30.458z"
   id="path20" />
		<path
   fill="#D2EFF9"
   d="M32.921,5.159L3.89,30.458l0.979,0.853l0,0l0.01,0.008l0,0l26.744,23.301l0,0l0.319,0.277l0,0l0.979,0.854    V42.743l0,0l0,0h16.336c4.77,0,8.643-3.866,8.643-8.644v-7.296c0-4.77-3.873-8.639-8.643-8.639H32.921V5.159L32.921,5.159z     M5.867,30.458L31.623,8.012v10.152v1.298h1.299h16.336c4.05,0,7.345,3.293,7.345,7.341V34.1c0,4.05-3.295,7.346-7.345,7.346    H32.921h-1.299v1.298v10.153L5.867,30.458L5.867,30.458z"
   id="path22" />
	</g>
</g>
</svg>
